X: 2214
T: LOCHNAGAR
Q: "Highland Schottische."
R: Schottishe.
%R: shottish
B: James Kerr "Merry Melodies" v.2 p.24 #214
Z: 2016 John Chambers <jc:trillian.mit.edu>
M: C
L: 1/8
K: D
uA>uF |\
vD2uD>uF vA2uA>uB | d>ef>e (e<d)d>B |\
A>Bc>B (A<F)F>D | E>DE>F E2A>F |\
D2D>F A2A>B | d>ef>e (e<d)d>B |\
A>Bd>B (A<F)F>D | E>DE>F D2 |]
uA2 |\
vd2uf>ue (e<d)d>A | B2d>B (A<F)F>G |\
(A<F){F}E>D vD<dd>uB | (A<F)F>D E2(f>g) |\
va>ug f/e/d/c (e<d)d>A | B(g/f/) e/d/c/B/ A2F>G |\
A2B>A (3ABd a>g | f2e>d d2 |]
